static/img/kroki/f7778a5eec53e224b658696cb0eb3c9e.svg

<?xml version="1.0" encoding="us-ascii" standalone="no"?><svg xmlns="http://www.w3.org/2000/svg" xmlns:xlink="http://www.w3.org/1999/xlink" contentStyleType="text/css" height="374px" preserveAspectRatio="none" style="width:379px;height:374px;" version="1.1" viewBox="0 0 379 374" width="379px" zoomAndPan="magnify"><defs/><g><!--class account--><g id="elem_account"><rect codeLine="23" fill="#3D176E" height="39.7891" id="account" rx="2.5" ry="2.5" style="stroke:#000D19;stroke-width:0.5;" width="107" x="7" y="167.79"/><ellipse cx="22" cy="187.6845" fill="#ADD1B2" rx="11" ry="11" style="stroke:#181818;stroke-width:1.0;"/><path d="M24.9688,193.3252 Q24.3906,193.622 23.75,193.7627 Q23.1094,193.9189 22.4063,193.9189 Q19.9063,193.9189 18.5781,192.2783 Q17.2656,190.622 17.2656,187.497 Q17.2656,184.372 18.5781,182.7158 Q19.9063,181.0595 22.4063,181.0595 Q23.1094,181.0595 23.75,181.2158 Q24.4063,181.372 24.9688,181.6689 L24.9688,184.3877 Q24.3438,183.8095 23.75,183.5439 Q23.1563,183.2627 22.5313,183.2627 Q21.1875,183.2627 20.5,184.3408 Q19.8125,185.4033 19.8125,187.497 Q19.8125,189.5908 20.5,190.6689 Q21.1875,191.7314 22.5313,191.7314 Q23.1563,191.7314 23.75,191.4658 Q24.3438,191.1845 24.9688,190.6064 L24.9688,193.3252 Z " fill="#000000"/><text fill="#D9B8FF" font-family="Helvetica" font-size="17" lengthAdjust="spacing" textLength="65" x="41" y="193.5698">account</text></g><!--class digitalocean_resource--><g id="elem_digitalocean_resource"><rect codeLine="26" fill="#3D176E" height="39.7891" id="digitalocean_resource" rx="2.5" ry="2.5" style="stroke:#000D19;stroke-width:0.5;" width="223" x="149" y="167.79"/><ellipse cx="164" cy="187.6845" fill="#ADD1B2" rx="11" ry="11" style="stroke:#181818;stroke-width:1.0;"/><path d="M166.9688,193.3252 Q166.3906,193.622 165.75,193.7627 Q165.1094,193.9189 164.4063,193.9189 Q161.9063,193.9189 160.5781,192.2783 Q159.2656,190.622 159.2656,187.497 Q159.2656,184.372 160.5781,182.7158 Q161.9063,181.0595 164.4063,181.0595 Q165.1094,181.0595 165.75,181.2158 Q166.4063,181.372 166.9688,181.6689 L166.9688,184.3877 Q166.3438,183.8095 165.75,183.5439 Q165.1563,183.2627 164.5313,183.2627 Q163.1875,183.2627 162.5,184.3408 Q161.8125,185.4033 161.8125,187.497 Q161.8125,189.5908 162.5,190.6689 Q163.1875,191.7314 164.5313,191.7314 Q165.1563,191.7314 165.75,191.4658 Q166.3438,191.1845 166.9688,190.6064 L166.9688,193.3252 Z " fill="#000000"/><text fill="#D9B8FF" font-family="Helvetica" font-size="17" lengthAdjust="spacing" textLength="181" x="183" y="193.5698">digitalocean_resource</text></g><!--class digitalocean_team--><g id="elem_digitalocean_team"><rect codeLine="29" fill="#3D176E" height="39.7891" id="digitalocean_team" rx="2.5" ry="2.5" style="stroke:#000D19;stroke-width:0.5;" width="196" x="61.5" y="328.58"/><ellipse cx="76.5" cy="348.4745" fill="#ADD1B2" rx="11" ry="11" style="stroke:#181818;stroke-width:1.0;"/><path d="M79.4688,354.1152 Q78.8906,354.412 78.25,354.5527 Q77.6094,354.7089 76.9063,354.7089 Q74.4063,354.7089 73.0781,353.0683 Q71.7656,351.412 71.7656,348.287 Q71.7656,345.162 73.0781,343.5058 Q74.4063,341.8495 76.9063,341.8495 Q77.6094,341.8495 78.25,342.0058 Q78.9063,342.162 79.4688,342.4589 L79.4688,345.1777 Q78.8438,344.5995 78.25,344.3339 Q77.6563,344.0527 77.0313,344.0527 Q75.6875,344.0527 75,345.1308 Q74.3125,346.1933 74.3125,348.287 Q74.3125,350.3808 75,351.4589 Q75.6875,352.5214 77.0313,352.5214 Q77.6563,352.5214 78.25,352.2558 Q78.8438,351.9745 79.4688,351.3964 L79.4688,354.1152 Z " fill="#000000"/><text fill="#D9B8FF" font-family="Helvetica" font-size="17" lengthAdjust="spacing" textLength="154" x="95.5" y="354.3598">digitalocean_team</text></g><!--class resource--><g id="elem_resource"><rect codeLine="32" fill="#3D176E" height="39.7891" id="resource" rx="2.5" ry="2.5" style="stroke:#000D19;stroke-width:0.5;" width="113" x="103" y="7"/><ellipse cx="118" cy="26.8945" fill="#ADD1B2" rx="11" ry="11" style="stroke:#181818;stroke-width:1.0;"/><path d="M120.9688,32.5352 Q120.3906,32.832 119.75,32.9727 Q119.1094,33.1289 118.4063,33.1289 Q115.9063,33.1289 114.5781,31.4883 Q113.2656,29.832 113.2656,26.707 Q113.2656,23.582 114.5781,21.9258 Q115.9063,20.2695 118.4063,20.2695 Q119.1094,20.2695 119.75,20.4258 Q120.4063,20.582 120.9688,20.8789 L120.9688,23.5977 Q120.3438,23.0195 119.75,22.7539 Q119.1563,22.4727 118.5313,22.4727 Q117.1875,22.4727 116.5,23.5508 Q115.8125,24.6133 115.8125,26.707 Q115.8125,28.8008 116.5,29.8789 Q117.1875,30.9414 118.5313,30.9414 Q119.1563,30.9414 119.75,30.6758 Q120.3438,30.3945 120.9688,29.8164 L120.9688,32.5352 Z " fill="#000000"/><text fill="#D9B8FF" font-family="Helvetica" font-size="17" lengthAdjust="spacing" textLength="71" x="137" y="32.7798">resource</text></g><!--reverse link resource to account--><g id="link_resource_account"><path codeLine="35" d="M138.0362,62.3241 C119.0062,92.8441 91.54,136.9 72.48,167.46 " fill="none" id="resource-backto-account" style="stroke:#FFAF37;stroke-width:2.0;"/><polygon fill="none" points="147.56,47.05,132.9449,59.1495,143.1276,65.4987,147.56,47.05" style="stroke:#FFAF37;stroke-width:2.0;"/></g><!--reverse link resource to digitalocean_resource--><g id="link_resource_digitalocean_resource"><path codeLine="36" d="M181.3431,62.2363 C200.7631,92.7563 228.83,136.9 248.27,167.46 " fill="none" id="resource-backto-digitalocean_resource" style="stroke:#FFAF37;stroke-width:2.0;"/><polygon fill="none" points="171.68,47.05,176.281,65.4574,186.4052,59.0153,171.68,47.05" style="stroke:#FFAF37;stroke-width:2.0;"/></g><!--reverse link account to digitalocean_team--><g id="link_account_digitalocean_team"><path codeLine="37" d="M81.9638,223.1141 C100.9938,253.6341 128.46,297.69 147.52,328.25 " fill="none" id="account-backto-digitalocean_team" style="stroke:#FFAF37;stroke-width:2.0;"/><polygon fill="none" points="72.44,207.84,76.8724,226.2887,87.0551,219.9395,72.44,207.84" style="stroke:#FFAF37;stroke-width:2.0;"/></g><!--reverse link digitalocean_resource to digitalocean_team--><g id="link_digitalocean_resource_digitalocean_team"><path codeLine="38" d="M238.6569,223.0263 C219.2369,253.5463 191.17,297.69 171.73,328.25 " fill="none" id="digitalocean_resource-backto-digitalocean_team" style="stroke:#FFAF37;stroke-width:2.0;"/><polygon fill="none" points="248.32,207.84,233.5948,219.8053,243.719,226.2474,248.32,207.84" style="stroke:#FFAF37;stroke-width:2.0;"/></g><!--SRC=[XP1BRy8m48Jl-HMME4U2eXOYzG98LNj1LUczsjXhi4ZiQBqfee__tgGyPFA0esS-xypknYWKc1Uy5pdcAPAF_DRO0WXoCIDokuNB78c1rg37awRvv2pV19QGetZ6x1FPI6WIxniZjnQz5tU1DGUvNPChhJgCPmBhAmij1zGY0-zdp6JIaZ4eev9qgdMJR0uTZDLeye0jp952EYB3uL2DaYPoC-hgtcTYPRvGZCAZBHrZgsOhuf-wsh8cWfAjHKz-RyTNKChOjRWFjBT39x985_fg0yhjQbf3viCOpqZeU5_WehKL9bEb9vtmInySoVfq0gIiF1RVKVHxb9HP6uRCIGJxGUXTIH9x0SOgBp0lFvnVZpzn79_Icd9dOdIgri7KeL5tppxw3m00]--></g></svg>

<svg xmlns="http://www.w3.org/2000/svg" width="379" height="374" viewBox="0 0 379 374"><rect width="107" height="39.789" x="7" y="167.79" fill="#3D176E" rx="2.5" ry="2.5" style="stroke:#000d19;stroke-width:.5"/><circle cx="22" cy="187.685" r="11" fill="#ADD1B2" style="stroke:#181818;stroke-width:1"/><path d="M24.969 193.325q-.578.297-1.219.438-.64.156-1.344.156-2.5 0-3.828-1.64-1.312-1.657-1.312-4.782t1.312-4.781q1.328-1.656 3.828-1.656.703 0 1.344.156.656.156 1.219.453v2.719q-.625-.578-1.219-.844-.594-.281-1.219-.281-1.343 0-2.031 1.078-.687 1.062-.687 3.156t.687 3.172q.688 1.062 2.031 1.062.625 0 1.219-.265.594-.281 1.219-.86z"/><text x="41" y="193.57" fill="#D9B8FF" font-family="Helvetica" font-size="17" textLength="65">account</text><rect width="223" height="39.789" x="149" y="167.79" fill="#3D176E" rx="2.5" ry="2.5" style="stroke:#000d19;stroke-width:.5"/><circle cx="164" cy="187.685" r="11" fill="#ADD1B2" style="stroke:#181818;stroke-width:1"/><path d="M166.969 193.325q-.578.297-1.219.438-.64.156-1.344.156-2.5 0-3.828-1.64-1.312-1.657-1.312-4.782t1.312-4.781q1.328-1.656 3.828-1.656.703 0 1.344.156.656.156 1.219.453v2.719q-.625-.578-1.219-.844-.594-.281-1.219-.281-1.344 0-2.031 1.078-.687 1.062-.687 3.156t.687 3.172q.688 1.062 2.031 1.062.625 0 1.219-.265.594-.281 1.219-.86z"/><text x="183" y="193.57" fill="#D9B8FF" font-family="Helvetica" font-size="17" textLength="181">digitalocean_resource</text><rect width="196" height="39.789" x="61.5" y="328.58" fill="#3D176E" rx="2.5" ry="2.5" style="stroke:#000d19;stroke-width:.5"/><circle cx="76.5" cy="348.474" r="11" fill="#ADD1B2" style="stroke:#181818;stroke-width:1"/><path d="M79.469 354.115q-.578.297-1.219.438-.64.156-1.344.156-2.5 0-3.828-1.64-1.312-1.657-1.312-4.782t1.312-4.781q1.328-1.656 3.828-1.656.703 0 1.344.156.656.156 1.219.453v2.719q-.625-.579-1.219-.844-.594-.281-1.219-.281-1.344 0-2.031 1.078-.687 1.062-.687 3.156t.687 3.172q.688 1.062 2.031 1.062.625 0 1.219-.265.594-.281 1.219-.86z"/><text x="95.5" y="354.36" fill="#D9B8FF" font-family="Helvetica" font-size="17" textLength="154">digitalocean_team</text><rect width="113" height="39.789" x="103" y="7" fill="#3D176E" rx="2.5" ry="2.5" style="stroke:#000d19;stroke-width:.5"/><circle cx="118" cy="26.895" r="11" fill="#ADD1B2" style="stroke:#181818;stroke-width:1"/><path d="M120.969 32.535q-.578.297-1.219.438-.64.156-1.344.156-2.5 0-3.828-1.64-1.312-1.657-1.312-4.782t1.312-4.781q1.328-1.656 3.828-1.656.703 0 1.344.156.656.156 1.219.453v2.719q-.625-.578-1.219-.844-.594-.281-1.219-.281-1.344 0-2.031 1.078-.687 1.062-.687 3.156t.687 3.172q.688 1.062 2.031 1.062.625 0 1.219-.265.594-.281 1.219-.86z"/><text x="137" y="32.78" fill="#D9B8FF" font-family="Helvetica" font-size="17" textLength="71">resource</text><g fill="none"><path d="M138.036 62.324C119.006 92.844 91.54 136.9 72.48 167.46" style="stroke:#ffaf37;stroke-width:2"/><path d="m147.56 47.05-14.615 12.1 10.183 6.349z" style="stroke:#ffaf37;stroke-width:2"/></g><g fill="none"><path d="M181.343 62.236c19.42 30.52 47.487 74.664 66.927 105.224" style="stroke:#ffaf37;stroke-width:2"/><path d="m171.68 47.05 4.601 18.407 10.124-6.442z" style="stroke:#ffaf37;stroke-width:2"/></g><path fill="none" d="M81.964 223.114c19.03 30.52 46.496 74.576 65.556 105.136M72.44 207.84l4.432 18.449 10.183-6.35z" style="stroke:#ffaf37;stroke-width:2"/><g fill="none"><path d="M238.657 223.026c-19.42 30.52-47.487 74.664-66.927 105.224" style="stroke:#ffaf37;stroke-width:2"/><path d="m248.32 207.84-14.725 11.965 10.124 6.442z" style="stroke:#ffaf37;stroke-width:2"/></g></svg>
